rospo-dark/16x16/actions/crosshairs.svg

<svg height="16" viewBox="0 0 16 16" width="16" xmlns="http://www.w3.org/2000/svg"><path d="m7 1v1.0898438a6 6 0 0 0 -4.9140625 4.9101562h-1.0859375v2h1.0898438a6 6 0 0 0 4.9101562 4.914062v1.085938h2v-1.089844a6 6 0 0 0 4.914062-4.910156h1.085938v-2h-1.089844a6 6 0 0 0 -4.910156-4.9140625v-1.0859375zm0 3.1308594v2.8691406h-2.8671875a4 4 0 0 1 2.8671875-2.8691406zm2 .0019531a4 4 0 0 1 2.869141 2.8671875h-2.869141zm-4.8691406 4.8671875h2.8691406v2.867188a4 4 0 0 1 -2.8691406-2.867188zm4.8691406 0h2.867188a4 4 0 0 1 -2.867188 2.869141z" fill="#d3dae3"/></svg>

<?xml version="1.0" encoding="UTF-8" standalone="no"?>
<svg xmlns="http://www.w3.org/2000/svg" width="22" height="22" viewBox="0 0 22 22">
 <defs>
  <style type="text/css" id="current-color-scheme">
   .ColorScheme-Text { color:#d3dae3; } .ColorScheme-Highlight { color:#5294e2; }
  </style>
 </defs>
 <path style="fill:currentColor;opacity:1" class="ColorScheme-Text" transform="translate(3 3)" d="M 7 1 L 7 2.0898438 A 6 6 0 0 0 2.0859375 7 L 1 7 L 1 9 L 2.0898438 9 A 6 6 0 0 0 7 13.914062 L 7 15 L 9 15 L 9 13.910156 A 6 6 0 0 0 13.914062 9 L 15 9 L 15 7 L 13.910156 7 A 6 6 0 0 0 9 2.0859375 L 9 1 L 7 1 z M 7 4.1308594 L 7 7 L 4.1328125 7 A 4 4 0 0 1 7 4.1308594 z M 9 4.1328125 A 4 4 0 0 1 11.869141 7 L 9 7 L 9 4.1328125 z M 4.1308594 9 L 7 9 L 7 11.867188 A 4 4 0 0 1 4.1308594 9 z M 9 9 L 11.867188 9 A 4 4 0 0 1 9 11.869141 L 9 9 z"/>
</svg>
